X: 103
M: 2/2
L: 1/8
K: G
d2Bc dcBA | B2G2 G2A2 |\
d2Bc dcBA | G4 :|
|: "2f"d2ef |\
g2fe d2c2 | !+!B4 d2cB |\
g2d2 g2!+!f2 | g4 G2A2 |\
!+!B2c2 dcBA |
!+!B2c2 dcBA | G2ef g2fe |\
d2ef g2fe | d4 g2fe |\
d2G2 A2!+!F2 | G4 :|

